public/icons/Close.svg

<svg width="24" height="24" viewBox="0 0 24 24" fill="none" xmlns="http://www.w3.org/2000/svg">
<path d="M12 10.5858L7.05025 5.63604L5.63603 7.05025L10.5858 12L5.63603 16.9497L7.05025 18.364L12 13.4142L16.9497 18.364L18.364 16.9497L13.4142 12L18.364 7.05025L16.9497 5.63604L12 10.5858Z" fill="#0E0940"/>
</svg>

<svg xmlns="http://www.w3.org/2000/svg" width="24" height="24" fill="none"><path fill="#0E0940" d="m12 10.586-4.95-4.95L5.636 7.05l4.95 4.95-4.95 4.95 1.414 1.414 4.95-4.95 4.95 4.95 1.414-1.414-4.95-4.95 4.95-4.95-1.414-1.414-4.95 4.95Z"/></svg>
